X:1
T:17
T:17
T:Études enfantines op. 37
T:Henry Lemoine
C:Henry Lemoine
%%score { ( 1 4 ) | ( 2 3 ) }
L:1/8
Q:1/4=120
M:2/4
K:D
V:1 treble nm="Piano" snm="Pno."
V:4 treble 
V:2 treble 
V:3 treble 
V:1
!p!"^Allegretto\n" (!^!!5!a | f/g/e/f/ .d) (!^!!5!a | f/g/e/f/ .d) (!^!!5!e | %3
 !3!c/d/B/c/ !^!AB/c/ | .!4!d) (!1!d/e/ .f) (!5!a/g/ | f/g/e/f/ .d) (!5!a/g/ | %6
 f/g/e/f/ .d) (!5!e/d/ | !3!c/d/B/c/ !^!AB/c/ | d2) z2 ::!f! (!^!!5!e | !3!c/d/B/c/ !^!AB/c/ | %11
 .!4!d) (!1!d/e/ .f) (!3!f/a/ | .g) (!2!e/g/ .f) (!1!d/f/ | !2!e/!5!a/f/a/ .e) (!5!e/d/ | %14
 !3!c/d/B/c/ !^!AB/c/ | .!4!d) (!1!d/e/ .!3!f).f | (a/g/!1!B/!3!d/ c/A/c/e/ | d2) z!fine! :: %18
!p! !3!d/^c/ | z (g/a/ !^!b) z | z (g/a/ !^!b) z | .a z .a z | (!>!g2 .b)!p!!3!d/^c/ | %23
 z (g/a/ !^!b) z | z (g/a/ !^!b) z | .a z .f z | g3!D.C.! |] %27
V:2
 z | (!1!AG .F) z | (!1!AG .F) z | (!>![DG]4 | .[DF]) z z2 | (!1!AG .F) z | (!1!AG .F) z | %7
 !>![A,EG]4 | (FA F) z :: z | !>!!5!!2!!1![A,EG]4 | !>!!5!!2!!1![A,DF]4 | !5!!3![A,C]2 [A,D]2 | %13
 (CD .C) z | (E2 G2 | .F) z z2 | .[G,B,E] z .[A,EG] z | (FA F) :: z |[K:bass] !3!B,2 D2 | %20
 !3!B,2 D2 | (=CD CD | B, D2) z | !3!B,2 D2 | !3!B,2 D2 | (=CD CD | B,D) B, |] %27
V:3
 x | !5!D3 z | !5!D3 z | x4 | x4 | !5!D3 z | !5!D3 z | x4 | !4!D3 z :: x | x4 | x4 | x4 | %13
 !5!A,3 z | (A,4 | .B,) z z2 | x4 | !4!D3 :: z |[K:bass] !5!G,4 | !5!G,4 | G,2 G,2 | G,2 .G, z | %23
 !5!G,4 | !5!G,4 | G,2 G,2 | G,2 z |] %27
V:4
 x | x4 | x4 | x4 | x4 | x4 | x4 | x4 | x4 :: x | x4 | x4 | x4 | x4 | x4 | x4 | x4 | x3 :: x | %19
 d2- d(!1!d/!2!^c/ | d2-) d!1!d/!2!b/ | x !1!d/!2!b/ x (!1!d/!2!b/) | x2 z2 | %23
 !^!d2- d(!1!d/!2!^c/ | !^!d2-) d!1!d/!2!b/ | x !1!d/!2!g/ x (!1!d/!2!a/) | x3 |] %27

